X:13
T:Rose Fragrante,La. CJF.013
T:La Rose Fragrante. CJF.013
R:air
S:C.J.Fox MS, 1829/33, Beverley,E.Yorks.
B:Kidson Coll.Mitchell Lib.M1805
O:England
A:East Yorkshire
Z:vmp.P J Headford 2000 & 2008
M:2/4
L:1/16
Q:1/4=60
K:D
“$”A2|\
dFAd fAdf|a4d’4|cAce gceg|a4e’4|!
dAdf adfa|d’4f’2d’a|\
e’ee’e e’ed’e|d’2d’2d’2|!A2|d4e2f2|\
fegf e2b2|b4a2g2|!
gfag d2A2|d4e2f2|fegf e2g2|b4a2g2|!
a^(gba a=gBc)|d4e2f2|fegf e2g2|\
b4a2g2|gfaf d2A2|!
d4e2f2|(fecb agfe)|(dfba ag” D.C. $”Bc)|(e4d2)|]

